icon-themes/colibre_svg/res/savemodified_small.svg

<svg viewBox="0 0 16 16" xmlns="http://www.w3.org/2000/svg">


     /&amp;gt;
 <path d="m1 0c-.554 0-1 .446-1 1v14c0 .554.446 1 1 1h10.769531a3 3 0 0 1 -.769531-2 3 3 0 0 1 3-3 3 3 0 0 1 2 .767578v-10.767578c0-.554-.446-1-1-1z" fill="#8959ab"/><rect fill="#fff" height="6" ry="1" width="12" x="2" y="1"/><path d="m4 10c-.554 0-1 .446-1 1v3c0 .554.446 1 1 1h1v-4h2v4h4c .058197 0 .108641-.023752.164062-.033203a3 3 0 0 1 -.164062-.966797 3 3 0 0 1 1-2.230469v-.769531c0-.554-.446-1-1-1z" fill="#fff"/><circle cx="14" cy="14" fill="#eac282" r="2"/></svg>

<svg viewBox="0 0 16 16" xmlns="http://www.w3.org/2000/svg">
 <path
   d="M 1 0 C 0.446 0 0 0.446 0 1 L 0 15 C 0 15.554 0.446 16 1 16 L 10.361328 16 A 4 4 0 0 1 9 13 A 4 4 0 0 1 13 9 A 4 4 0 0 1 16 10.361328 L 16 1 C 16 0.446 15.554 0 15 0 L 1 0 z "
   style="fill:#8959ab" />
<rect
   fill="#fff"
   height="6"
   ry="1"
   width="12"
   x="2"
   y="1"
   />
<path
   d="M 4 10 C 3.446 10 3 10.446 3 11 L 3 14 C 3 14.554 3.446 15 4 15 L 5 15 L 5 11 L 7 11 L 7 15 L 9.5410156 15 A 4 4 0 0 1 9 13 A 4 4 0 0 1 10.361328 10 L 4 10 z "
   style="fill:#ffffff" />
<circle
   style="fill:#d65532"
   cx="13"
   cy="13"
   r="3" />
</svg>
